packages/foundations/assets/icons/functional/images/food/knife_and_fork_32.svg

<svg width="32" height="32" viewBox="0 0 32 32" fill="none" xmlns="http://www.w3.org/2000/svg">
<g clip-path="url(#clip0_2208_3693)">
<path fill-rule="evenodd" clip-rule="evenodd" d="M10 8.99875V2.99875C10 2.4675 10.4375 1.99875 11 1.99875C11.5625 1.99875 12 2.4675 12 2.99875V8.99875C12 9.55103 11.5523 9.99875 11 9.99875C10.4477 9.99875 10 9.55103 10 8.99875ZM8 8.97513C8 10.6444 9.34375 11.9987 11 11.9987C12.6562 11.9987 14 10.6444 14 8.97513V2.99875C14 2.4675 14.4375 1.99875 15 1.99875C15.5625 1.99875 16 2.4675 16 2.99875V8.99875C16 11.4362 14.2812 13.4362 12 13.905V28.9987C12 29.53 11.5625 29.9987 11 29.9987C10.4375 29.9987 10 29.53 10 28.9987V13.905C7.71875 13.4362 6 11.4362 6 8.99875V2.99875C6 2.4675 6.4375 1.99875 7 1.99875C7.5625 1.99875 8 2.4675 8 2.99875V8.97513ZM19 18.9987V8.03C19 4.7175 21.6875 1.99875 25 1.99875C25.5625 1.99875 26 2.4675 26 3.03V29.0012C26 29.5325 25.5625 30.0012 25 30.0012C24.4375 30.0012 24 29.5325 24 29.0012V19.9987H20C19.4477 19.9987 19 19.551 19 18.9987ZM21 17.9987H24V4.12375C22.25 4.56125 21 6.155 21 7.99875V17.9987Z" fill="#1A1C1F"/>
</g>
<defs>
<clipPath id="clip0_2208_3693">
<rect width="32" height="32" fill="white"/>
</clipPath>
</defs>
</svg>

<svg xmlns="http://www.w3.org/2000/svg" width="32" height="32" fill="none"><g clip-path="url(#a)"><path fill="#1A1C1F" fill-rule="evenodd" d="M10 8.999v-6c0-.532.438-1 1-1s1 .468 1 1v6a1 1 0 1 1-2 0m-2-.024C8 10.645 9.344 12 11 12s3-1.355 3-3.024V3c0-.532.438-1 1-1s1 .468 1 1v6a5 5 0 0 1-4 4.906v15.094c0 .531-.437 1-1 1s-1-.469-1-1V13.905a5 5 0 0 1-4-4.906v-6c0-.532.438-1 1-1s1 .468 1 1zM19 19V8.03c0-3.312 2.688-6.031 6-6.031.563 0 1 .468 1 1.031v25.971c0 .531-.437 1-1 1s-1-.469-1-1V20h-4a1 1 0 0 1-1-1m2-1h3V4.124c-1.75.437-3 2.031-3 3.875z" clip-rule="evenodd"/></g><defs><clipPath id="a"><path fill="#fff" d="M0 0h32v32H0z"/></clipPath></defs></svg>
